!!!!SEGMENT: pl-gd--ee-1638--008-014_marenzio-luca--il-quarto-libro-de-madrigalia-a-sei-voci-non-porta-giaccio-aprile.krn
!!!cenid: 15xx:876
!!!COM: Marenzio, Luca
!!!COM-rismID: pe30003955
!!!CDT: ~1553-1599/08/22
!!!CNT: Italian
!!!GTL: Il Quarto Libro de madrigalia a sei voci
!!!OTL: Non porta giaccio Aprile
!!!OMV: 014
!!!PDT: 1587
!!!AGN:
!!!SMS-siglum: PL-GD
!!!SMS-shelfmark: Ee 1638
!!!SMS-variant:
!!!SMS-altvar:
!!!SMS-shelfwork: 008-014 G
!!!NIFC-rismSourceID: 1001202747
!!!NIFC-rismChildID: 990039254
!!!NIFC-islandoraID: pl-gd:57883
!!!URL-pdf-islandora: https://repozytorium.nifc.pl/islandora/object/pl-gd%3A57883/datastream/PDF/view
!!!URL-scan: https://polish.musicsources.pl/pl/lokalizacje/galeria/klocki-introligatorskie/655 @EN{Scan on Polish Music Sources Website} @PL{Skany w portalu Dziedzictwo Muzyki Polskiej w otwartym dostępie}
!!!ONB-nifc: UWAGA: zbiór na stronach: Canto: s. 706-716, Alto: s. 554-564, Tenore: s. 402-412, Basso: s.250-260, Quinto: s. 98-108, Sesto: s. 16-26. Uwaga: utwory podzielone wg tytułów w spisach treści dostępnych na końcu każdej księgi głosowej.
!!!AIN: 2 alto 1 bass 1 soprn 2 tenor
!!!key:
**kern	**text	**kern	**text	**kern	**text	**kern	**text	**kern	**text	**kern	**text
*part6	*part6	*part5	*part5	*part4	*part4	*part3	*part3	*part2	*part2	*part1	*part1
*staff6	*staff6	*staff5	*staff5	*staff4	*staff4	*staff3	*staff3	*staff2	*staff2	*staff1	*staff1
*I"Sesto	*	*I"Quinto	*	*I"Basso	*	*I"Tenore	*	*I"Alto	*	*I"Canto	*
*I'V 6	*	*I'V 5	*	*I'B	*	*I'T	*	*I'A	*	*I'C	*
*Itenor	*	*Ialto	*	*Ibass	*	*Itenor	*	*Ialto	*	*Isoprn	*
*ICvox	*	*ICvox	*	*ICvox	*	*ICvox	*	*ICvox	*	*ICvox	*
*clefC4	*	*clefC3	*	*clefF4	*	*clefC4	*	*clefC3	*	*clefC1	*
*k[]	*	*k[]	*	*k[]	*	*k[]	*	*k[]	*	*k[]	*
*d:	*	*d:	*	*d:	*	*d:	*	*d:	*	*d:	*
*M2/1	*	*M2/1	*	*M2/1	*	*M2/1	*	*M2/1	*	*M2/1	*
*met(C)	*	*met(C)	*	*met(C)	*	*met(C)	*	*met(C)	*	*met(C)	*
=1-	=1-	=1-	=1-	=1-	=1-	=1-	=1-	=1-	=1-	=1-	=1-
*xywh-#23:1120,594,3317,794	*	*xywh-#105:1198,601,3303,787	*	*xywh-#257:1530,628,3304,760	*	*xywh-#409:1359,572,3348,798	*	*xywh-#561:1320,592,3340,806	*	*xywh-#713:1356,545,3377,821	*
!LO:TX:t=P:problem:s.23	!	!LO:TX:t=P:problem:s.105	!	!LO:TX:t=P:problem:s.257	!	!LO:TX:t=P:problem:s.409	!	!LO:TX:t=P:problem:s.561	!	!LO:TX:t=P:problem:s.713	!
!	!	!	!	!	!	!	!	!	!	!LO:TX:a:B:t=Prestissimo	!
00r	.	1f	Non	00r	.	1D	NOn	1d	NOn	1a	NOn
.	.	1e	por-	.	.	1A	por-	1c	por-	1a	por-
=2-	=2-	=2-	=2-	=2-	=2-	=2-	=2-	=2-	=2-	=2-	=2-
.	.	4e\	-ta	.	.	4E/	-ta	4B/	-ta	4g/	-ta
.	.	2c/	ghiac-	.	.	2F/	ghiac-	2A/	ghiac-	2f/	giac-
.	.	4d\	-cio A-	.	.	4D/	-cio A-	4A/	-cio Ap-	4f/	-cio Ap-
.	.	2B/	-pri-	.	.	2E/	-pri-	2G#X/	-ri-	2e/	-ri-
.	.	4B/	-le	.	.	4E/	-le	4G#/	-le	4e/	-le
.	.	4e\	Ma	.	.	4E/	Ma	4B/	Ma	4g#X/	Ma
=3-	=3-	=3-	=3-	=3-	=3-	=3-	=3-	=3-	=3-	=3-	=3-
00r	.	4.e\	lie-	00r	.	4.A/	lie-	4.c/	lie-	4.a\	lie-
.	.	8e\	-ti e	.	.	8A/	-ti e	8c/	-ti e	8a\	-ti e
.	.	4e\	va-	.	.	4A/	va-	4c/	va-	4a\	va-
.	.	4g\	-ghi	.	.	4G/	-ghi	4d\	-ghi	4b\	-ghi
.	.	2g\	fio-	.	.	2c\	fio-	2e\	fio-	2cc\	fio-
.	.	2g\	-ri	.	.	2c\	-ri	2e\	-ri	2cc\	-ri
!	!	!	!	!	!	!LO:SIC:v:t=custos F	!	!LO:SIC:v:t=custos c	!	!	!
!	!	!	!	!	!	!LO:LB:g=original	!	!LO:LB:g=original	!	!	!
=4-	=4-	=4-	=4-	=4-	=4-	=4-	=4-	=4-	=4-	=4-	=4-
*	*	*	*	*	*	*xywh-#409:1398,1263,3325,668	*	*xywh-#561:1320,1191,3310,752	*	*	*
.	.	4f\	O-	.	.	4F/	O	4c/	O	4a\	O
.	.	4f\	-bel-	.	.	4F/	bel-	4c/	bel-	4a\	bel-
!	!	!LO:SIC:v:t=custos f	!	!	!	!	!	!	!	!	!
!	!	!LO:LB:g=original	!	!	!	!	!	!	!	!	!
*	*	*xywh-#105:1115,1244,3407,677	*	*	*	*	*	*	*	*	*
.	.	4.f\	-liſ-	.	.	4.F/	-liſ-	4.c/	-liſ-	4.a\	-liſ-
.	.	8f\	-ſi-	.	.	8F/	-ſi-	8c/	-ſi-	8a\	-ſi-
!	!	!	!	!	!	!	!	!	!	!LO:SIC:v:t=custos a	!
!	!	!	!	!	!	!	!	!	!	!LO:LB:g=original	!
*	*	*	*	*	*	*	*	*	*	*xywh-#713:1327,1215,3392,699	*
.	.	4f\	-ma	.	.	4F/	-ma	4c/	-ma	4a\	-ma
.	.	4f\	mia	.	.	4F/	mia	4c/	mia	4a\	mia
.	.	1f\	cru-	.	.	2F/	cru-	1c\	cru-	1a\	cru-
=5-	=5-	=5-	=5-	=5-	=5-	=5-	=5-	=5-	=5-	=5-	=5-
0r	.	.	.	0r	.	2.C/	-da	.	.	.	.
.	.	4e\	-da	.	.	.	.	4c/	-da	4gny/	-da
.	.	4d\	Li-	.	.	4D/	Li-	2A/	Li-	4f/	Li-
.	.	4c#X/	-co-	.	.	1A	-co-	.	.	1e	-co-
.	.	2d\	.	.	.	.	.	4.a\	-co-	.	.
.	.	.	.	.	.	.	.	16g\	.	.	.
.	.	.	.	.	.	.	.	16f\	.	.	.
.	.	4c#X/	.	.	.	.	.	4e\	.	.	.
=6-	=6-	=6-	=6-	=6-	=6-	=6-	=6-	=6-	=6-	=6-	=6-
2r	.	4.d\	-ri	1r	.	1D	-ri	1f	-ri	1d	-ri
.	.	16cny/	.	.	.	.	.	.	.	.	.
.	.	16B/	.	.	.	.	.	.	.	.	.
1d	Deh	2A/	.	.	.	.	.	.	.	.	.
.	.	2r	.	1.D	Deh	1r	.	2r	.	1.dd	Deh
4c\	com'	1f\	Deh	.	.	.	.	1a\	Deh	.	.
4B\	au-	.	.	.	.	.	.	.	.	.	.
=7-	=7-	=7-	=7-	=7-	=7-	=7-	=7-	=7-	=7-	=7-	=7-
2A/	-ien	.	.	.	.	1r	.	.	.	.	.
2r	.	4f\	com'	4F\	com'	.	.	4a\	com'	4cc\	com'
.	.	4d\	au-	4G\	au-	.	.	4g\	au-	4b\	au-
1r	.	1d	-ien	1D	-ien	2r	.	1f#X	-ien	1a	-ien
.	.	.	.	.	.	1d\	Deh	.	.	.	.
=8-	=8-	=8-	=8-	=8-	=8-	=8-	=8-	=8-	=8-	=8-	=8-
1d	che	00r	.	1G	che	.	.	1g	che	1b	che
.	.	.	.	.	.	4c\	com'	.	.	.	.
.	.	.	.	.	.	4B\	au-	.	.	.	.
2.f\	per	.	.	2.F\	per	1A	-ien	2.a\	per	2.cc\	per
4f\	mia	.	.	4F\	mia	.	.	4a\	mia	4cc\	mia
!	!	!	!	!	!	!	!	!LO:SIC:v:t=custos a	!	!	!
!	!	!	!	!	!	!	!	!LO:LB:g=original	!	!	!
=9-	=9-	=9-	=9-	=9-	=9-	=9-	=9-	=9-	=9-	=9-	=9-
*	*	*	*	*	*	*	*	*xywh-#561:1312,1782,3340,706	*	*	*
2c\	for-	.	.	2F\	for-	0r	.	2a\	for-	2cc\	for-
2d\	-te	.	.	2D/	-te	.	.	2fny\	-te	1b	-te
1c	du-	.	.	1E	du-	.	.	1e	du-	.	.
.	.	.	.	.	.	.	.	.	.	1a\	du-
!LO:SIC:v:t=custos B	!	!	!	!	!	!	!	!	!	!	!
!LO:LB:g=original	!	!	!	!	!	!	!	!	!	!	!
=10-	=10-	=10-	=10-	=10-	=10-	=10-	=10-	=10-	=10-	=10-	=10-
*xywh-#23:1058,1293,3373,608	*	*	*	*	*	*	*	*	*	*	*
1B	-ra	1r	.	1E	-ra	1r	.	1e	-ra	.	.
.	.	.	.	.	.	.	.	.	.	2g#X/	-ra
!	!	!	!	!LO:SIC:v:t=custos B	!	!	!	!	!	!LO:SIC:v:t=custos b	!
!	!	!	!	!LO:LB:g=original	!	!	!	!	!	!LO:LB:g=original	!
!!LO:TX:t=P:problem:3 przy nucie
*	*	*	*	*xywh-#257:1452,1257,3328,667	*	*	*	*	*	*xywh-#713:1357,1762,3346,730	*
*	*	*col	*	*col	*	*col	*	*col	*	*col	*
1r	.	3.f#X\	Can-	3.BB/	Can-	3.B\	Can-	3.d#X\	Can-	3.b\	Can-
.	.	6f#\	-gi	6BB/	-gi	6B\	-gi	6d#\	-gi	6b\	-gi
.	.	3f#\	ſuo	3BB/	ſuo	3B\	ſuo	3e\	ſuo	3b\	ſuo
*	*	*Xcol	*	*Xcol	*	*Xcol	*	*Xcol	*	*Xcol	*
!	!	!LO:SIC:v:t=custos g	!	!	!	!LO:SIC:v:t=custos B	!	!	!	!	!
!	!	!LO:LB:g=original	!	!	!	!LO:LB:g=original	!	!	!	!	!
=11-	=11-	=11-	=11-	=11-	=11-	=11-	=11-	=11-	=11-	=11-	=11-
!!LO:TX:t=P:problem:3 przy nucie
*	*	*xywh-#105:1142,1769,3407,711	*	*	*	*xywh-#409:1382,1754,3356,698	*	*	*	*	*
*	*	*col	*	*col	*	*col	*	*col	*	*col	*
1r	.	3%2g#X	ſtil	3%2E	ſtil	3%2B	ſtil	3%2e	ſtil	3%2b	ſtil
.	.	3a\	na-	3AA/	na-	3A/	na-	3e\	na-	3cc#X\	na-
*	*	*Xcol	*	*Xcol	*	*Xcol	*	*Xcol	*	*Xcol	*
2r	.	2d\	-tu-	2GG/	-tu-	2B\	-tu-	2g\	-tu-	2dd\	-tu-
4r	.	4d\	-ra	4GG/	-ra	2G/	-ra	4g\	-ra	2b\	-ra
4B\	E	4gny\	E	4G\	E	.	.	4dny\	E	.	.
=12-	=12-	=12-	=12-	=12-	=12-	=12-	=12-	=12-	=12-	=12-	=12-
4.c\	ſua	4fny\	ſua	4.A\	ſua	0r	.	4a\	ſua	0r	.
.	.	4e\	na-	.	.	.	.	4a\	na-	.	.
8d\	na-	.	.	8B\	na-	.	.	.	.	.	.
4e\	-ru-	4e\	-ru-	4c\	-tu-	.	.	4g\	-ru-	.	.
4d\	-ra il	4a\	-ra il	4d\	-ra il	.	.	4f\	-ra il	.	.
2c#X\	cie-	2a\	cie-	2A\	cie-	.	.	2e\	cie-	.	.
2d\	-lo	2a\	-lo	2D/	-lo	.	.	2f\	-lo	.	.
=13-	=13-	=13-	=13-	=13-	=13-	=13-	=13-	=13-	=13-	=13-	=13-
0r	.	2r	.	2r	.	1.d	Deh	2r	.	1r	.
.	.	1f	Deh	1D	Deh	.	.	1a	Deh	.	.
.	.	.	.	.	.	.	.	.	.	1.dd	Deh
!	!	!	!	!	!	!	!	!LO:SIC:v:t=custos a	!	!	!
!	!	!	!	!	!	!	!	!LO:LB:g=original	!	!	!
*	*	*	*	*	*	*	*	*xywh-#561:1312,2320,3310,706	*	*	*
.	.	4f\	com'	4F\	com'	4c\	com'-	4a\	com'	.	.
.	.	4d\	au-	4G\	au-	4B\	-au-	4g\	au-	.	.
=14-	=14-	=14-	=14-	=14-	=14-	=14-	=14-	=14-	=14-	=14-	=14-
1r	.	0d	-ien	1.D	-ien	1A	-ien	1.f#X	-ien	.	.
.	.	.	.	.	.	.	.	.	.	4ccny\	com'
.	.	.	.	.	.	.	.	.	.	4b\	au-
2r	.	.	.	.	.	1r	.	.	.	2a\	-ien
2d\	che	.	.	2G\	che	.	.	2g\	che	2b\	che
!	!	!	!	!LO:SIC:v:t=custos F	!	!	!	!	!	!	!
!	!	!	!	!LO:LB:g=original	!	!	!	!	!	!	!
=15-	=15-	=15-	=15-	=15-	=15-	=15-	=15-	=15-	=15-	=15-	=15-
*	*	*	*	*xywh-#257:1452,1823,3374,667	*	*	*	*	*	*	*
2.f\	per	00r	.	2.F\	per	0r	.	2.a\	per	2.cc\	per
4f\	mia	.	.	4F\	mia	.	.	4a\	mia	4cc\	mia
2cny\	for-	.	.	2F\	for-	.	.	2a\	for-	2cc\	for-
2d\	-te	.	.	2D/	-te	.	.	2fny\	-te	1b\	-te
=16-	=16-	=16-	=16-	=16-	=16-	=16-	=16-	=16-	=16-	=16-	=16-
1c	du-	.	.	1E	du-	0r	.	1e	du-	.	.
.	.	.	.	.	.	.	.	.	.	1a	du-
1B	-ra	.	.	1E	-ra	.	.	1e	-ra	.	.
.	.	.	.	.	.	.	.	.	.	2g#X/	-ra
!	!	!	!	!	!	!	!	!	!	!LO:SIC:v:t=custos b	!
!	!	!	!	!	!	!	!	!	!	!LO:LB:g=original	!
=17-	=17-	=17-	=17-	=17-	=17-	=17-	=17-	=17-	=17-	=17-	=17-
!!LO:TX:t=P:problem:3 przy nucie
*	*	*	*	*	*	*	*	*	*	*xywh-#713:1350,2356,3392,631	*
*	*	*col	*	*col	*	*col	*	*col	*	*col	*
0r	.	3.f#X\	Can-	3.BB/	Can-	3.B\	Can-	3.d#X\	Can-	3.b\	Can-
.	.	6f#\	-gi	6BB/	-gi	6B\	-gi	6d#\	-gi	6b\	-gi
.	.	3f#\	ſuo	3BB/	ſuo	3B\	ſuo	3d#\	ſuo	3b\	ſuo
*	*	*Xcol	*	*Xcol	*	*Xcol	*	*Xcol	*	*Xcol	*
!!LO:TX:t=P:problem:3 przy nucie
*	*	*col	*	*col	*	*col	*	*col	*	*col	*
.	.	3%2g#X	ſtil	3%2E	ſtil	3%2B	ſtil	3%2e	ſtil	3%2b	ſtil
.	.	3a\	na-	3AA/	na-	3A/	na-	3e\	na-	3cc#X\	na-
*	*	*Xcol	*	*Xcol	*	*Xcol	*	*Xcol	*	*Xcol	*
!	!	!LO:SIC:v:t=custos d	!	!	!	!	!	!	!	!	!
!	!	!LO:LB:g=original	!	!	!	!	!	!	!	!	!
=18-	=18-	=18-	=18-	=18-	=18-	=18-	=18-	=18-	=18-	=18-	=18-
*	*	*xywh-#105:1122,2288,3366,725	*	*	*	*	*	*	*	*	*
2r	.	2d\	-tu-	2GG/	-tu-	2B\	-tu-	2g\	-tu-	2dd\	-tu-
4r	.	4d\	-ra	4GG/	-ra	2G/	-ra	2g\	-ra	4dd\	-ra
4B\	E	4d\	E	4G\	E	.	.	.	.	4b\	E
!LO:SIC:v:t=custos c	!	!	!	!	!	!	!	!	!	!	!
!LO:LB:g=original	!	!	!	!	!	!	!	!	!	!	!
*xywh-#23:1071,1783,3359,656	*	*	*	*	*	*	*	*	*	*	*
4.c\	ſua	4a\	ſua	4.A\	ſua	1r	.	1r	.	4.ee\	ſua
.	.	4a\	na-	.	.	.	.	.	.	.	.
8d\	na-	.	.	8B\	na-	.	.	.	.	8dd\	na-
4e\	-tu-	4gny\	-tu-	4c\	-tu-	.	.	.	.	4ccny\	-tu-
4d\	-ra il	4fny\	-ra il	4d\	-ra il	.	.	.	.	4a\	-ra il
!	!	!	!	!LO:SIC:v:t=custos A	!	!	!	!	!	!	!
!	!	!	!	!LO:LB:g=original	!	!	!	!	!	!	!
=19-	=19-	=19-	=19-	=19-	=19-	=19-	=19-	=19-	=19-	=19-	=19-
*	*	*	*	*xywh-#257:1475,2312,3304,760	*	*	*	*	*	*	*
2c#X\	cie-	2e\	cie-	2A\	cie-	2r	.	0r	.	2a\	cie-
2d\	-lo	2f#X\	-lo	2D/	-lo	4r	.	.	.	2a\	-lo
.	.	.	.	.	.	2d\	Mi-	.	.	.	.
2B\	Mi-	1r	.	2G\	Mi-	.	.	.	.	1r	.
.	.	.	.	.	.	4B\	-ro in	.	.	.	.
!	!	!	!	!	!	!LO:SIC:v:t=custos c	!	!	!	!	!
!	!	!	!	!	!	!LO:LB:g=original	!	!	!	!	!
*	*	*	*	*	*	*xywh-#409:1398,2277,3317,698	*	*	*	*	*
2A/	-ro in	.	.	2F\	-ro in	4c\	te	.	.	.	.
.	.	.	.	.	.	4.d\	ſo-	.	.	.	.
=20-	=20-	=20-	=20-	=20-	=20-	=20-	=20-	=20-	=20-	=20-	=20-
2cny\	te	1r	.	2E\	te	.	.	2g\	Mi-	1r	.
.	.	.	.	.	.	8c\	.	.	.	.	.
.	.	.	.	.	.	2c\	.	.	.	.	.
2d\	ſo-	.	.	2D/	ſo-	.	.	2f\	-ro in	.	.
.	.	.	.	.	.	4B\	.	.	.	.	.
!	!	!	!	!	!	!	!	!LO:SIC:v:t=custos e	!	!	!
!	!	!	!	!	!	!	!	!LO:LB:g=original	!	!	!
*	*	*	*	*	*	*	*	*xywh-#561:1312,2842,3279,729	*	*	*
2G/	-la	2g\	Mi-	2C/	-la	2c\	-la	2e\	te	4r	.
.	.	.	.	.	.	.	.	.	.	4gny/	e
2r	.	2fny\	-ro in	2r	.	2r	.	2dny\	ſo-	4.dd\	ſol
.	.	.	.	.	.	.	.	.	.	8dd\	in
!	!	!	!	!	!	!	!	!	!	!LO:SIC:v:t=custos e	!
!	!	!	!	!	!	!	!	!	!	!LO:LB:g=original	!
=21-	=21-	=21-	=21-	=21-	=21-	=21-	=21-	=21-	=21-	=21-	=21-
*	*	*	*	*	*	*	*	*	*	*xywh-#713:1365,2850,3346,669	*
1r	.	2e\	te	4r	.	0r	.	2c/	-la	4ee\	te
.	.	.	.	4C/	e	.	.	.	.	4cc\	diſ-
.	.	2d\	ſo-	4.G\	ſol	.	.	2r	.	2b\	-cer-
.	.	.	.	8G\	in	.	.	.	.	.	.
2r	.	1c	-la	4A\	te	.	.	4r	.	1cc	-no
.	.	.	.	4F\	diſ-	.	.	4c/	e	.	.
4r	.	.	.	2E\	-cer-	.	.	4.g\	ſol	.	.
4g\	Mi-	.	.	.	.	.	.	.	.	.	.
.	.	.	.	.	.	.	.	8g\	in	.	.
=22-	=22-	=22-	=22-	=22-	=22-	=22-	=22-	=22-	=22-	=22-	=22-
2f\	-ro in	0r	.	2F\	-no	1r	.	4a\	te	2r	.
.	.	.	.	.	.	.	.	4f\	diſ-	.	.
2e\	te	.	.	2c\	Mi-	.	.	4g\	-cer-	4r	.
.	.	.	.	.	.	.	.	4g\	-no	4c/	e
2d\	ſo-	.	.	2B-X\	-ro in	2r	.	2r	.	4.g/	ſol
.	.	.	.	.	.	.	.	.	.	8g/	in
2c\	-la	.	.	2A\	te	4r	.	4r	.	4a\	te
.	.	.	.	.	.	4c\	Mi-	4c/	e	4f/	diſ-
!	!	!	!	!LO:SIC:v:t=custos G	!	!	!	!	!	!	!
!	!	!	!	!LO:LB:g=original	!	!	!	!	!	!	!
=23-	=23-	=23-	=23-	=23-	=23-	=23-	=23-	=23-	=23-	=23-	=23-
*	*	*	*	*xywh-#257:1452,2894,3359,682	*	*	*	*	*	*	*
0r	.	2r	.	2G\	ſo-	2B-X\	-ro in	4.g\	ſol	2e/	-cer-
.	.	.	.	.	.	.	.	8g\	in	.	.
.	.	4r	.	2F\	-la	2A/	te	4a\	te	2f/	-no
.	.	4c\	e	.	.	.	.	4f\	diſ-	.	.
.	.	4.g\	ſol	1r	.	2G/	ſo-	2e\	-cer-	1r	.
.	.	8g\	in	.	.	.	.	.	.	.	.
.	.	4a\	te	.	.	2F/	-la e	2f\	-no	.	.
.	.	4f\	di-	.	.	.	.	.	.	.	.
!	!	!LO:SIC:v:t=custos e	!	!	!	!	!	!	!	!	!
!	!	!LO:LB:g=original	!	!	!	!	!	!	!	!	!
=24-	=24-	=24-	=24-	=24-	=24-	=24-	=24-	=24-	=24-	=24-	=24-
*	*	*xywh-#105:1115,2841,3386,711	*	*	*	*	*	*	*	*	*
4r	.	2e\	-ſcer-	2r	.	4.c\	ſol	1r	.	1r	.
2A/	Mi-	.	.	.	.	.	.	.	.	.	.
.	.	.	.	.	.	8c\	in	.	.	.	.
.	.	2f\	-no	2D/	Mi-	4d\	te	.	.	.	.
4F/	-ro in	.	.	.	.	4f\	diſ-	.	.	.	.
!LO:SIC:v:t=custos G	!	!	!	!	!	!	!	!	!	!	!
!LO:LB:g=original	!	!	!	!	!	!	!	!	!	!	!
*xywh-#23:1058,2357,3366,601	*	*	*	*	*	*	*	*	*	*	*
2G/	te	1r	.	2C/	-ro in	4e\	-cer-	4r	.	2r	.
.	.	.	.	.	.	4e\	-no	4Gny/	e	.	.
!	!	!	!	!	!	!	!	!LO:SIC:v:t=custos d	!	!	!
!	!	!	!	!	!	!	!	!LO:LB:g=original	!	!	!
*	*	*	*	*	*	*	*	*xywh-#561:1289,3410,3340,714	*	*	*
4r	.	.	.	2BB/	te	2r	.	4.d\	ſol	2dd\	Mi-
2G/	ſo-	.	.	.	.	.	.	.	.	.	.
.	.	.	.	.	.	.	.	8d\	in	.	.
!	!	!	!	!	!	!LO:SIC:v:t=custos d	!	!	!	!	!
!	!	!	!	!	!	!LO:LB:g=original	!	!	!	!	!
=25-	=25-	=25-	=25-	=25-	=25-	=25-	=25-	=25-	=25-	=25-	=25-
*	*	*	*	*	*	*xywh-#409:1398,2845,3333,645	*	*	*	*	*
.	.	0r	.	2AA/	ſo-	2r	.	4e\	te	2cc\	-ro in
4F#X/	.	.	.	.	.	.	.	4A/	diſ-	.	.
2G/	-la	.	.	2GG/	-la	4r	.	2d\	-cer-	1b	te
.	.	.	.	.	.	2d\	Mi-	.	.	.	.
1r	.	.	.	2G\	Mi-	.	.	2d\	-no	.	.
.	.	.	.	.	.	4Bny\	-ro in	.	.	.	.
.	.	.	.	2F\	-ro in	4c\	te	2r	.	2a\	ſo-
.	.	.	.	.	.	4.d\	ſo-	.	.	.	.
=26-	=26-	=26-	=26-	=26-	=26-	=26-	=26-	=26-	=26-	=26-	=26-
1r	.	4r	.	2E\	te	.	.	1r	.	2g/	-la e
.	.	.	.	.	.	8c\	.	.	.	.	.
.	.	4g\	Miro in	.	.	2c\	.	.	.	.	.
.	.	2f\	te	2D/	ſo-	.	.	.	.	4.dd\	ſol
.	.	.	.	.	.	4B\	.	.	.	.	.
.	.	.	.	.	.	.	.	.	.	8dd\	in
!	!	!	!	!	!	!	!	!	!	!LO:SIC:v:t=custos ee	!
!	!	!	!	!	!	!	!	!	!	!LO:LB:g=original	!
*	*	*	*	*	*	*	*	*	*	*xywh-#713:1372,3420,3323,669	*
2r	.	2e\	ſo-	2C/	-la e	2c\	-la	4r	.	4ee\	te
.	.	.	.	.	.	.	.	4g\	e	4cc\	diſ-
4r	.	2d\	-la 	4.G\	ſol	2r	.	4.g\	ſol	2b\	-cer-
4G/	e	.	.	.	.	.	.	.	.	.	.
.	.	.	.	8G\	in	.	.	8g\	in	.	.
=27-	=27-	=27-	=27-	=27-	=27-	=27-	=27-	=27-	=27-	=27-	=27-
4.c\	ſol	2c/	e	4A\	te	0r	.	4e\	te	2cc\	-no
.	.	.	.	4F\	diſ-	.	.	4A/	e	.	.
8A/	in	.	.	.	.	.	.	.	.	.	.
4B\	te	4.g\	ſol	2E\	-cer-	.	.	4.e\	ſol	2r	.
4c\	diſ-	.	.	.	.	.	.	.	.	.	.
.	.	8g\	in	.	.	.	.	8e\	in	.	.
!	!	!	!	!LO:SIC:v:t=custos F	!	!	!	!	!	!	!
!	!	!	!	!LO:LB:g=original	!	!	!	!	!	!	!
*	*	*	*	*xywh-#257:1437,3421,3304,713	*	*	*	*	*	*	*
4.A/	-cer-	4a\	te	2F\	-no	.	.	4c\	te	1r	.
.	.	4f\	diſ-	.	.	.	.	4a\	diſ-	.	.
8B\	.	.	.	.	.	.	.	.	.	.	.
2c\	.	2e\	-cer-	2r	.	.	.	2g\	-cer-	.	.
=28-	=28-	=28-	=28-	=28-	=28-	=28-	=28-	=28-	=28-	=28-	=28-
2Fny/	-no	2f\	-no	2r	.	2r	.	2a\	-no	2r	.
4F/	Vi-	4d\	Vi-	4D/	Vi-	4A/	Vi-	4f\	Vi-	4a\	Vi-
8F/	-ſo	8d\	-ſo	8D/	-ſo	8A/	-ſo	8f\	-ſo	8a\	-ſo
8F/	di	8d\	di	8D/	di	8A/	di	8f\	di	8a\	di
!	!	!	!	!	!	!	!	!LO:SIC:v:t=custos e	!	!	!
!	!	!	!	!	!	!	!	!LO:LB:g=original	!	!	!
*	*	*	*	*	*	*	*	*xywh-#561:1266,3956,3333,698	*	*	*
4A/	Pri-	4e\	Pri-	4C#X/	Pri-	4E/	Pri-	4e\	Pri-	4a\	Pri-
4D/	-ma-	4d\	-ma-	4D/	-ma-	4A/	-ma-	4f#X\	-ma-	4a\	-ma-
2D/	-ue-	2d\	-ue-	2GG/	-ue-	2G/	-ue-	2g\	-ue-	2b\	-ue-
!LO:SIC:v:t=custos C	!	!	!	!	!	!	!	!	!	!	!
!LO:LB:g=original	!	!	!	!	!	!	!	!	!	!	!
=29-	=29-	=29-	=29-	=29-	=29-	=29-	=29-	=29-	=29-	=29-	=29-
*xywh-#23:1058,2862,3359,656	*	*	*	*	*	*	*	*	*	*	*
2C/	-ra e	4e\	-ra e	4Cny/	-ra e	4G/	-ra e	4g\	-ra e	4cc\	-ra e
.	.	2f\	cor	2FF/	cor	4.c\	cor-	2a\	cor-	2cc\	cor-
4F/	cor-	.	.	.	.	.	.	.	.	.	.
.	.	.	.	.	.	8A/	-di	.	.	.	.
4D/	-di	4r	.	4GG/	di	2d\	Ver-	4g\	-di	4b\	-di
!	!	!LO:SIC:v:t=custos A	!	!	!	!	!	!	!	!	!
!	!	!LO:LB:g=original	!	!	!	!	!	!	!	!	!
*	*	*xywh-#105:1080,3435,3373,656	*	*	*	*	*	*	*	*	*
4.A/	Ver-	4r	.	1AA	Ver-	.	.	1e	Ver-	1a	Ver-
.	.	4A/	di	.	.	8c\	.	.	.	.	.
16G/	.	.	.	.	.	8B\	.	.	.	.	.
16F/	.	.	.	.	.	.	.	.	.	.	.
2E/	.	2A/	Ver-	.	.	2c#X\	.	.	.	.	.
!	!	!	!	!	!	!LO:SIC:v:t=custos d	!	!	!	!	!
!	!	!	!	!	!	!LO:LB:g=original	!	!	!	!	!
=30-	=30-	=30-	=30-	=30-	=30-	=30-	=30-	=30-	=30-	=30-	=30-
*	*	*	*	*	*	*xywh-#409:1398,3367,3310,706	*	*	*	*	*
1D	-no	2A/	-no	1D	-no	1d	-no	1f#X	-no	2a\	-no
.	.	4r	.	.	.	.	.	.	.	2dd\	Mi-
.	.	4d\	Mi-	.	.	.	.	.	.	.	.
1r	.	4e\	-ro in	2r	.	1r	.	1r	.	2cc\	-ro in
.	.	4f\	te	.	.	.	.	.	.	.	.
.	.	4g\	ſo-	2G\	Mi-	.	.	.	.	2b\	te
.	.	4G/	-la e	.	.	.	.	.	.	.	.
=31-	=31-	=31-	=31-	=31-	=31-	=31-	=31-	=31-	=31-	=31-	=31-
00r	.	4.d\	ſol	2F\	-ro in	0r	.	2r	.	2a\	ſo-
.	.	8d\	in	.	.	.	.	.	.	.	.
.	.	4e\	te	2E\	te	.	.	4r	.	2g/	-la e
.	.	2c/	diſ-	.	.	.	.	4g\	Mi-	.	.
!	!	!	!	!	!	!	!	!	!	!LO:SIC:v:t=custos dd	!
!	!	!	!	!	!	!	!	!	!	!LO:LB:g=original	!
*	*	*	*	*	*	*	*	*	*	*xywh-#713:1372,3976,3346,676	*
.	.	.	.	2D/	ſo-	.	.	2fny\	-ro in	4.dd\	ſol
.	.	4B/	-cer-	.	.	.	.	.	.	.	.
.	.	.	.	.	.	.	.	.	.	8dd\	in
.	.	4c/	-no	2C/	-la e	.	.	2e\	te	4ee\	te
.	.	4g\	e	.	.	.	.	.	.	4cc\	diſ-
=32-	=32-	=32-	=32-	=32-	=32-	=32-	=32-	=32-	=32-	=32-	=32-
.	.	4.g\	ſol	4.G\	ſol	4r	.	2d\	ſo-	2b\	-cer-
.	.	.	.	.	.	4G/	e	.	.	.	.
.	.	8g\	in	8G\	in	.	.	.	.	.	.
.	.	4e\	te	4A\	te	4.cny\	ſol	2c/	-la e	2cc\	-no
.	.	4A/	e	4F\	di-	.	.	.	.	.	.
.	.	.	.	.	.	8A/	in	.	.	.	.
!	!	!	!	!LO:SIC:v:t=custos E	!	!	!	!	!	!	!
!	!	!	!	!LO:LB:g=original	!	!	!	!	!	!	!
*	*	*	*	*xywh-#257:1460,3957,3312,713	*	*	*	*	*	*	*
.	.	4.e\	ſol	2E\	-ſcer-	4B\	te	4.g\	ſol	1r	.
.	.	.	.	.	.	4c\	diſ-	.	.	.	.
.	.	8e\	in	.	.	.	.	8g\	in	.	.
!	!	!LO:SIC:v:t=custos c	!	!	!	!	!	!	!	!	!
!	!	!LO:LB:g=original	!	!	!	!	!	!	!	!	!
*	*	*xywh-#105:1094,3954,3373,663	*	*	*	*	*	*	*	*	*
.	.	4c/	te	2F\	-no	4.A/	-cer-	4a\	te	.	.
.	.	4a\	diſ-	.	.	.	.	2f\	diſ-	.	.
.	.	.	.	.	.	8B\	.	.	.	.	.
=33-	=33-	=33-	=33-	=33-	=33-	=33-	=33-	=33-	=33-	=33-	=33-
1r	.	1g	-cer-	1r	.	1c	.	.	.	1r	.
.	.	.	.	.	.	.	.	8e\	-cer-	.	.
.	.	.	.	.	.	.	.	8d\	.	.	.
.	.	.	.	.	.	.	.	2e\	.	.	.
!	!	!	!	!	!	!	!	!LO:SIC:v:t=custos f	!	!	!
!	!	!	!	!	!	!	!	!LO:LB:g=original	!	!	!
*	*	*	*	*	*	*	*	*xywh-#561:1228,4501,3394,691	*	*	*
2r	.	2a\	-no	2r	.	2F/	-no	2f\	-no	2r	.
4A/	Vi-	4f\	Vi-	4D/	Vi-	4F/	Vi-	4d\	Vi-	4a\	Vi-
8A/	-ſo	8f\	-ſo	8D/	-ſo	8F/	-ſo	8d\	-ſo	8a\	-ſo
8A/	di	8f\	di	8D/	di	8F/	di	8d\	di	8a\	di
=34-	=34-	=34-	=34-	=34-	=34-	=34-	=34-	=34-	=34-	=34-	=34-
4E/	Pri-	4e\	Pri-	4C#X/	Pri-	4A/	Pri-	4e\	Pri-	4a\	Pri-
4A/	-ma-	4f#X\	-ma-	4D/	-ma-	4D/	-ma-	4d\	-ma-	4a\	-ma-
2G/	-ue-	2g\	-ue-	2GG/	-ue-	2D/	-ue-	2d\	-ue-	2b\	-ue-
4G/	-ra e	4g\	-ra e	4Cny/	-ra e	2C/	-ra e	4e\	-ra e	4cc\	-ra e
4.c\	cor-	2a\	cor	2FF/	cor-	.	.	2f\	cor	2cc\	cor
.	.	.	.	.	.	4F/	cor-	.	.	.	.
8A/	-di	.	.	.	.	.	.	.	.	.	.
2d\	Ver-	4g\	di	4GG/	-di	4D/	-di	4r	.	4b\	di
!	!	!	!	!	!	!LO:SIC:v:t=custos A	!	!	!	!	!
!	!	!	!	!	!	!LO:LB:g=original	!	!	!	!	!
=35-	=35-	=35-	=35-	=35-	=35-	=35-	=35-	=35-	=35-	=35-	=35-
*	*	*	*	*	*	*xywh-#409:1382,3936,3340,599	*	*	*	*	*
.	.	1e	Ver-	1AA	Ver-	4.A/	Ver-	4r	.	1a	Ver-
8c#X\	.	.	.	.	.	.	.	4A/	di	.	.
8B\	.	.	.	.	.	16G/	.	.	.	.	.
.	.	.	.	.	.	16F/	.	.	.	.	.
2c#X\	.	.	.	.	.	2E/	.	2A/	Ver-	.	.
00d	-no.	00f#X	-no.	00D	-no.	00D	-no.	00A	-no.	00a	-no.
=36-	=36-	=36-	=36-	=36-	=36-	=36-	=36-	=36-	=36-	=36-	=36-
.	.	.	.	.	.	.	.	.	.	.	.
=37-	=37-	=37-	=37-	=37-	=37-	=37-	=37-	=37-	=37-	=37-	=37-
.	.	.	.	.	.	.	.	.	.	.	.
1ryy	.	1ryy	.	1ryy	.	1ryy	.	1ryy	.	1ryy	.
=||	=||	=||	=||	=||	=||	=||	=||	=||	=||	=||	=||
*-	*-	*-	*-	*-	*-	*-	*-	*-	*-	*-	*-
!!!system-decoration: s1,s2,s3,s4,s5,s6
!!!ENC: Andrzej Gręziak
!!!END: 2022-06-15
!!!ENC: Urszula Świątek
!!!END: 2022-07-25
!!!YEC: Copyright 2022 Narodowy Instytut Fryderyka Chopina (https://polishscores.org)
!!!YEM: License CC-BY-4.0 (https://creativecommons.org/licenses/by/4.0)
!!!IIIF: https://repozytorium.nifc.pl/islandora/object/pl-gd%3A57883/datastream/IIIF/view
!!!ENC-iiif: Jolanta Bujas-Poniatowska
!!!END-iiif: 2022-09-23
